react-docker/public/side_page_img.svg

<svg width="1440" height="369" viewBox="0 0 1440 369" fill="none" xmlns="http://www.w3.org/2000/svg">
<path d="M989.223 -19.5459C992.791 -24.566 1000.45 -23.842 1003.02 -18.2427L1050.32 85.0481C1052.88 90.6474 1048.42 96.9225 1042.29 96.3433L929.189 85.6588C923.058 85.0796 919.853 78.0805 923.42 73.0604L989.223 -19.5459Z" fill="#D4AF2A"/>
<path d="M523.656 31.3761C524.093 25.2332 531.015 21.8669 536.117 25.3168L558.851 40.6905C563.952 44.1404 563.406 51.819 557.868 54.512L533.187 66.5133C527.648 69.2063 521.272 64.894 521.708 58.7511L523.656 31.3761Z" fill="#4193F3"/>
<path d="M1191.36 -56.9781C1185.77 -67.9566 1194.17 -80.8626 1206.47 -80.2088L1471.81 -66.1058C1484.11 -65.452 1491.09 -51.7289 1484.38 -41.4041L1339.49 181.34C1332.77 191.664 1317.4 190.847 1311.82 179.869L1191.36 -56.9781Z" fill="#E73C31"/>
<mask id="mask0_2830_763" style="mask-type:alpha" maskUnits="userSpaceOnUse" x="-108" y="-83" width="257" height="258">
<path d="M111.574 -44.6223C161.576 5.53379 161.451 86.7278 111.295 136.73C61.1387 186.732 -20.0553 186.607 -70.0571 136.45C-120.059 86.2944 -119.934 5.10038 -69.7779 -44.9015C-19.6219 -94.9033 61.5721 -94.7783 111.574 -44.6223Z" fill="#4193F3"/>
</mask>
<g mask="url(#mask0_2830_763)">
<rect x="-69.7778" y="-44.9013" width="128.235" height="256.471" rx="16" transform="rotate(-44.9118 -69.7778 -44.9013)" fill="#4193F3"/>
</g>
<circle cx="1138.7" cy="154.077" r="34.6831" transform="rotate(-37.361 1138.7 154.077)" fill="#E73C31"/>
<circle cx="1180.8" cy="209.212" r="34.6831" transform="rotate(-37.361 1180.8 209.212)" fill="#E73C31"/>
<circle cx="1222.89" cy="264.346" r="34.6831" transform="rotate(-37.361 1222.89 264.346)" fill="#E73C31"/>
<circle cx="1264.99" cy="319.48" r="34.6831" transform="rotate(-37.361 1264.99 319.48)" fill="#E73C31"/>
<circle cx="99.5339" cy="242.344" r="78.7755" fill="#E73C31"/>
<path d="M303.967 -123.148C305.63 -130.386 315.399 -131.649 318.849 -125.073L359.556 -47.4537C360.641 -45.386 362.574 -43.8952 364.85 -43.3724L450.271 -23.7498C457.509 -22.0871 458.772 -12.3174 452.195 -8.86809L374.576 31.8394C372.509 32.9239 371.018 34.8575 370.495 37.1331L350.873 122.554C349.21 129.792 339.44 131.055 335.991 124.479L295.283 46.8598C294.199 44.792 292.265 43.3012 289.99 42.7785L204.569 23.1558C197.331 21.4932 196.067 11.7234 202.644 8.27416L280.263 -32.4334C282.331 -33.5178 283.822 -35.4515 284.344 -37.727L303.967 -123.148Z" fill="#D4AF2A"/>
<path d="M1811.64 -19.6841C1811.64 145.289 1677.91 279.026 1512.93 279.026C1347.96 279.026 1214.22 145.289 1214.22 -19.6841C1214.22 -184.657 1347.96 -318.394 1512.93 -318.394C1677.91 -318.394 1811.64 -184.657 1811.64 -19.6841Z" fill="#4193F3"/>
<path d="M1673.69 -19.6842C1673.69 69.1011 1601.72 141.076 1512.93 141.076C1424.15 141.076 1352.17 69.1011 1352.17 -19.6842C1352.17 -108.469 1424.15 -180.444 1512.93 -180.444C1601.72 -180.444 1673.69 -108.469 1673.69 -19.6842Z" fill="#F9F7F2"/>
</svg>

<?xml version="1.0" encoding="UTF-8"?>
<svg id="Layer_1" xmlns="http://www.w3.org/2000/svg" version="1.1" viewBox="0 0 1440 369">
  <!-- Generator: Adobe Illustrator 29.5.1, SVG Export Plug-In . SVG Version: 2.1.0 Build 141)  -->
  <defs>
    <style>
      .st0 {
        fill: #d4af2a;
      }

      .st1 {
        fill: #e73c31;
      }

      .st2 {
        fill: #4193f3;
      }
    </style>
  </defs>
  <path class="st0" d="M989.22-19.55c3.57-5.02,11.23-4.3,13.8,1.3l47.3,103.29c2.56,5.6-1.9,11.87-8.03,11.3l-113.1-10.68c-6.13-.58-9.34-7.58-5.77-12.6l65.8-92.61Z"/>
  <path class="st2" d="M523.66,31.38c.44-6.14,7.36-9.51,12.46-6.06l22.73,15.37c5.1,3.45,4.55,11.13-.98,13.82l-24.68,12c-5.54,2.69-11.92-1.62-11.48-7.76l1.95-27.37Z"/>
  <path class="st2" d="M119.27,128c-6.12,3.5-14.05,2.63-19.27-2.6L-58.48-33.57c-5.22-5.24-6.06-13.19-2.53-19.3,50.44-41.86,125.4-39.08,172.58,8.25,47.19,47.33,49.74,122.31,7.7,172.62Z"/>
  <g id="mask0_2830_763">
    <path class="st2" d="M119.27,128c-6.12,3.5-14.05,2.63-19.27-2.6L-58.48-33.57c-5.22-5.24-6.06-13.19-2.53-19.3,50.44-41.86,125.4-39.08,172.58,8.25,47.19,47.33,49.74,122.31,7.7,172.62Z"/>
  </g>
  <circle class="st1" cx="1138.7" cy="154.08" r="34.68"/>
  <circle class="st1" cx="1180.8" cy="209.21" r="34.68"/>
  <circle class="st1" cx="1222.89" cy="264.35" r="34.68"/>
  <circle class="st1" cx="1264.99" cy="319.48" r="34.68"/>
  <circle class="st1" cx="99.53" cy="242.34" r="78.78"/>
  <path class="st0" d="M303.97-123.15c1.66-7.24,11.43-8.5,14.88-1.92l40.71,77.62c1.08,2.07,3.02,3.56,5.29,4.08l85.42,19.62c7.24,1.66,8.5,11.43,1.92,14.88l-77.62,40.71c-2.07,1.08-3.56,3.02-4.08,5.29l-19.62,85.42c-1.66,7.24-11.43,8.5-14.88,1.92l-40.71-77.62c-1.08-2.07-3.02-3.56-5.29-4.08l-85.42-19.62c-7.24-1.66-8.5-11.43-1.93-14.88l77.62-40.71c2.07-1.08,3.56-3.02,4.08-5.29l19.62-85.42Z"/>
  <path class="st2" d="M1512.93-318.39c-164.97,0-298.71,133.73-298.71,298.71s133.74,298.71,298.71,298.71,298.71-133.74,298.71-298.71-133.73-298.71-298.71-298.71ZM1512.93,141.08c-88.78,0-160.76-71.98-160.76-160.76s71.98-160.76,160.76-160.76,160.76,71.97,160.76,160.76-71.97,160.76-160.76,160.76Z"/>
</svg>
